X:1
T:Title
%%score { ( 1 3 ) | ( 2 4 5 ) }
L:1/8
M:4/4
K:Ab
V:1 treble nm="Grand Piano"
V:3 treble 
V:2 bass 
V:4 bass 
V:5 bass 
V:1
 z4 z2[Q:1/4=92] [A,C]>[B,D] | [CE]>[Ec] [DB]>[CA] [CE]>[Ec] [DB]>[CA] | %2
[M:7/8] [DA]>[DG][DG]>[DF] G3 |[M:1/8] F |[M:4/4] E>d c>B E>d c>B | %5
[M:3/4] [DB]>[CA] [CA]>[CG] [CA]2 |[M:1/4] [A,C]>[B,D] | %7
[M:4/4] [CE]>[Ec] [DB]>[CA] [Ec]>[Ec] [DB]>[Ec] |[M:3/4] [_Ge]>[Fd] [Fd]>[Fc] [Fd]2 | %9
[M:1/4] [FA]>[=EB] |[M:4/4] c>c d>c c2 B2 |[M:3/4] (3[A,CA-][CA-][CA-] A4 | %12
[M:1/4][K:bass] (3[A,C][B,D][F,_C=D] |[M:4/4] E2[K:treble] c2 c2 c2 |[M:7/8] c>BB>=A B3 | %15
[M:1/8] F |[M:4/4] E2 d2 d2 d2 |[M:3/4] [Fd]>[Ec] [Ec]>[=D_c] [E=c]2 | %18
[M:1/4] (3[A,C]D[K:bass][E,_C=D] |[M:4/4] E2[K:treble] E2 _G2 e2 | %20
[M:3/4] [Fe]>[Fd] [Fd]>[Fc] [Fd]2 |[M:1/4] [FA]>[=EB] |[M:4/4] c>c d>c c2 B2 | %23
[M:3/4] (3[A,CA-][CA-][CA-] A4 |] %24
V:2
 z4 z2 [A,,E,]>[A,,E,] | [A,,A,]>[A,,A,] [A,,A,]>[A,,A,] [A,,A,]>[A,,A,] [A,,A,]>[A,,A,] | %2
[M:7/8] [B,,E,]>[B,,E,][B,,E,]>[B,,B,] [E,B,D]3 |[M:1/8] [E,A,D] | %4
[M:4/4] [E,G,D]>[E,G,F] [E,G,E]>[E,G,D] [E,G,D]>[E,G,F] [E,G,E]>[E,G,D] | %5
[M:3/4] [A,,A,]>[A,,E,] [A,,E,]>[A,,E,] [A,,E,]2 |[M:1/4] [A,,E,]>[A,,E,] | %7
[M:4/4] [A,,A,]>[A,,A,] [A,,A,]>[A,,A,] [A,,A,]>[A,,A,] [A,,A,]>[A,,A,] | %8
[M:3/4] [D,A,]>[D,A,] [D,A,]>[D,A,] [D,A,]2 |[M:1/4] [D,A,]>[D,A,] | %10
[M:4/4] [E,A,E]>[E,A,E] [E,A,F]>[E,A,E] [E,G,E]2 [E,G,D]2 |[M:3/4] z2 F,>F, E,2 | %12
[M:1/4] (3A,,-[A,,G,]A,, |[M:4/4] z z/ E,/ (3A,A,A, [A,,A,]2 A,>A, | %14
[M:7/8] [E,G,D]>[E,G,D][E,G,D]>[E,_G,C] [E,=G,D]3 |[M:1/8] [E,G,D] | %16
[M:4/4] [G,D]>G, [G,E]>G, [A,F]>A, [E,B,]2 |[M:3/4] [A,,A,]>[A,,A,] [A,,A,]>[A,,A,] [A,,A,]2 | %18
[M:1/4] (3[A,,E,]-[A,,E,B,]A,, |[M:4/4] z z/ A,/ [A,,A,]2 [A,,A,]2 [C,A,]2 | %20
[M:3/4] [D,A,]>[D,A,] [D,A,]>[D,A,] [D,A,]2 |[M:1/4] [D,A,]>[D,A,] | %22
[M:4/4] [E,A,E]>[E,A,E] [E,A,F]>[E,A,E] [E,G,E]2 [E,G,D]2 |[M:3/4] z2 F,>F, E,2 |] %24
V:3
 x8 | x8 |[M:7/8] x7 |[M:1/8] x |[M:4/4] x8 |[M:3/4] x6 |[M:1/4] x2 |[M:4/4] x8 |[M:3/4] x6 | %9
[M:1/4] x2 |[M:4/4] x8 |[M:3/4] z2 D>D C2 |[M:1/4][K:bass] x2 | %13
[M:4/4] [E,C]>C[K:treble] (3EEE F>[A,F] E>E |[M:7/8] x7 |[M:1/8] x | %16
[M:4/4] z z/ D/ z z/ E/ z z/ F/ G>[B,G] |[M:3/4] x6 |[M:1/4] x4/3[K:bass] x2/3 | %19
[M:4/4] [A,C]>[K:treble]C c->[A,Ec] c->[A,_Gc] G>[A,G] |[M:3/4] x6 |[M:1/4] x2 |[M:4/4] x8 | %23
[M:3/4] z2 D>D C2 |] %24
V:4
 x8 | x8 |[M:7/8] x7 |[M:1/8] x |[M:4/4] x8 |[M:3/4] x6 |[M:1/4] x2 |[M:4/4] x8 |[M:3/4] x6 | %9
[M:1/4] x2 |[M:4/4] x8 |[M:3/4] (3z E,E, z2 z2 |[M:1/4] x2 |[M:4/4] A,,2 A,,2 z2 A,,2 |[M:7/8] x7 | %15
[M:1/8] x |[M:4/4] E,2 E,2 E,2 z2 |[M:3/4] x6 |[M:1/4] x2 |[M:4/4] A,,2 z2 z4 |[M:3/4] x6 | %21
[M:1/4] x2 |[M:4/4] x8 |[M:3/4] (3z E,E, z2 z2 |] %24
V:5
 x8 | x8 |[M:7/8] x7 |[M:1/8] x |[M:4/4] x8 |[M:3/4] x6 |[M:1/4] x2 |[M:4/4] x8 |[M:3/4] x6 | %9
[M:1/4] x2 |[M:4/4] x8 |[M:3/4] A,,6 |[M:1/4] x2 |[M:4/4] x8 |[M:7/8] x7 |[M:1/8] x |[M:4/4] x8 | %17
[M:3/4] x6 |[M:1/4] x2 |[M:4/4] x8 |[M:3/4] x6 |[M:1/4] x2 |[M:4/4] x8 |[M:3/4] A,,6 |] %24

